packages/match-logos/color/svg/livestream.svg

<svg fill="none" height="34" viewBox="0 0 197 34" width="197" xmlns="http://www.w3.org/2000/svg" xmlns:xlink="http://www.w3.org/1999/xlink"><clipPath id="a"><path d="m0 0h196.305v34h-196.305z"/></clipPath><g clip-path="url(#a)"><path d="m42.4293 33.6818-.8334-.1251-.6566-.1768-.4767-.1799-.4604-.2317-.4329-.2887-.4055-.3475-.248-.2684-.2368-.3018-.3192-.5123-.2713-.5915-.2216-.6738-.1606-.7673-.1037-.8639-.0345-.9635v-1.1282l-.002-.4035v-.809l-.0041-.4014v-.4035l-.0041-.4015-.004-.4004-.0051-.4005-.0041-.3973-.0061-.3944-.0061-.3953-.0081-.3934-.0081-.3892-.0082-.3903-.0081-.3872-.0142-.3812-.0082-.3811-.0101-.3791-.0143-.376-.0142-.373-.0142-.369-.0163-.3648-.0162-.3619-.0173-.3597-.0163-.3568-.0203-.3486-.0193-.3476-.0203-.3435-.0234-.3395-.0193-.3353-.0265-.3283-.0243-.3263-.0244-.3181-.0244-.3181-.0295-.3069-.0295-.307-.0274-.2988-.0305-.2957-.0325-.2877-.0336-.2845-.0325-.2775-.0325-.2703-.0386-.2684-.0356-.2601-.0376-.2511-.0386-.249-.0417-.24086-.0376-.23478-.0447-.22664-.0407-.22156-.0467-.21547-.0448-.20733-.0457-.20226-.0478-.19615-.0477-.18497-.0488-.1799-.0529-.17481-.0518-.16566-.0539-.15754-.0528-.15245-.0559-.1433-.0559-.13518-.0579-.13009-.058-.12196-.063-.11383-.06-.10468-.062-.0996-.064-.09148-.063-.08232-.0671-.07521-.0691-.06606-.065-.05793-.0691-.05285-.0722-.04371-.0722-.03658-.0731-.02745-.0732-.01931-.0773-.01321-.0762-.00305h4.8256l.0793.00305.0742.01321.0752.01931.0752.02745.0691.03658.0732.04371.0681.05285.0681.05793.0691.06606.0661.07521.063.08232.065.09148.061.0996.062.10468.0579.11383.061.12196.0569.13009.057.13518.0559.1433.0538.15245.0519.15754.0528.16566.0508.17481.0488.1799.0508.18497.0468.19615.0477.20226.0448.20733.0416.21547.0458.22156.0416.22664.0407.23478.0386.24086.0417.249.0356.2511.0355.2601.0356.2684.0356.2703.0325.2775.0335.2845.0305.2877.0315.2957.0275.2988.0305.307.0274.3069.0254.3181.0254.3181.0254.3263.0224.3283.0213.3353.0254.3395.0194.3435.0213.3476.0163.3486.0183.3568.0182.3597.0163.3619.0132.3648.0163.369.0122.373.0132.376.0122.3791.0122.3811.0081.3812.0112.3872.0112.3903.004.3892.0061.3934.0082.3953.005.3944.0061.3973.0041.4005.0041.4004.003.4015.0021.4035v.4014l.0061.4055v1.2004l.0304.7104.0732.4949.0864.3344.0834.2185.0985.1911.1098.1667.0793.0955.0904.0884.0925.0783.0996.0691.1616.0854.1718.066.1839.0498.2684.0387.3618.0203.5071-.0203.2206-.0183v4.2961l-.4645.0579-1.0671.0559z" fill="#222020"/><path d="m20.4468 29.3207h-.125l-.1027-.0021-.1036-.0091-.1047-.0112-.1037-.0163-.1026-.0193-.1027-.0213-.1047-.0285-.1067-.0305-.1036-.0366-.1047-.0355-.1067-.0417-.1037-.0437-.1057-.0498-.1057-.0528-.1047-.0559-.1047-.06-.1077-.064-.1037-.0661-.1067-.0722-.1098-.0742-.1046-.0782-.1078-.0823-.1057-.0864-.1067-.0885-.1087-.0924-.1078-.0976-.1067-.0996-.1087-.1027-.1078-.1077-.1067-.1108-.1087-.1158-.1108-.1169-.1077-.121-.1078-.125-.1067-.129-.1128-.1312-.1067-.1351-.1098-.1372-.1097-.1423-.1088-.1433-.1108-.1484-.1097-.1535-.1098-.1545-.1108-.1544-.1098-.1627-.1097-.1636-.1128-.1667-.1118-.1707-.1118-.1708-.1098-.1778-.1128-.1769-.1098-.1829-.1118-.184-.1118-.186-.1118-.191-.1128-.1931-.1128-.1942-.1128-.1971-.1118-.2003-.1118-.2022-.1108-.2043-.1159-.2083-.1128-.2104-.1128-.2094-.1148-.2165-.1108-.2144-.1159-.2196-.1128-.2205-.1148-.2246-.1118-.2236-.1159-.2267-.1148-.2266-.1118-.2297-.1169-.2327-.1159-.2338-.1138-.2327-.1138-.2379-.1169-.2388-.1159-.2368-.1148-.2409-.1159-.2439-.1169-.2429-.1158-.2439-.1139-.245-.1179-.2459-.1158-.247-.1149-.248-.1158-.249-.12-.249-.1179-.2521-.1148-.249-.1159-.251-.1189-.252-.11687-.2511-.11688-.2551-.11992-.251-.11485-.2521-.12095-.2541-.11484-.252-.12095-.2511-.11484-.2551-.11993-.252-.12095-.251-.11484-.2521-.11993-.248-.12095-.252-.11789-.249-.1179-.2511-.11993-.249-.12094-.2459-.11892-.247-.12094-.246-.11891-.2459-.12095-.24293-.11993-.24087-.12094-.24291-.11891-.23782-.11993-.23884-.11993-.23681-.12095-.23478-.12196-.23274-.12094-.23274-.12095-.22868-.11993-.22766-.12196-.22665-.12196-.22359-.12094-.22157-.12298-.22156-.11993-.21445-.12196-.21648-.12196-.21241-.12501-.21039-.11891-.20733-.124-.2053-.12298-.19819-.12297-.1992-.12298-.19616-.12298-.19412-.12094-.19107-.12501-.18803-.124-.18192-.12196-.18294-.12501-.17685-.12094-.17379-.12502-.17176-.12399-.16567-.12399-.16363-.12501-.16058-.12298-.15652-.12501-.15042-.124-.1494-.12297-.14635-.12603-.14128-.12603-.13517-.12602-.13314-.124-.13009-.12399-.124-.12603-.11891-.12704-.11586-.12399-.11282-.12501-.10875-.12603-.101631-.12501-.096552-.12705-.09452-.12602-.091471-.12603-.082324-.12602-.080291-.129081-.07521-.122977-.07216-.129076-.063014-.12501-.06098-.127043-.055899-.12806-.05285-.126026-.0426865-.126027-.04167007h.0132125l2.2125775.04167007 2.06521.0426865 1.83755.05285 1.59973.055899 1.39544.06098 1.22568.063014 1.0865.07216.9726.07521.8761.080291.7999.082324.7318.091471.6728.09452.624.096552.5844.101631.5417.10875.5092.11282.4777.11586.4523.11891.4258.124.4045.13009.3822.13314.3669.13517.3496.14128.3323.14635.3171.1494.3029.15042.2937.15652.2775.16058.2683.16363.2602.16567.247.17176.2378.17379.2327.17685.2185.18294.2165.18192.2053.18803.2023.19107.1931.19412.187.19616.1789.1992.1778.19819.1687.2053.1637.20733.1616.21039.1524.21241.1494.21648.1464.21445.1433.22156.1362.22157.1331.22359.1301.22665.1271.22766.125.22868.1189.23274.1169.23274.1148.23478.1118.23681.1067.23884.1088.23782.1026.24291.1047.24087.0986.24293.1006.2459.0945.246.0945.247.0915.2459.0915.249.0884.2511.0905.249.0813.252.0853.248.0824.2521.0803.251.0813.252.0792.2551.0773.2511.0762.252.0742.2541.0701.2521.0762.251.0702.2551.0701.2511.0691.252.0691.251.0671.249.0661.2521.0111.0356.0539.2134.0651.249.062.248.063.247.061.2459.062.245.0599.2439.061.2429.0569.2439.059.2409.0579.2368.0528.2388.059.2379.0539.2327.0548.2338.0519.2327.0549.2297.0538.2266.0488.2267.0529.2236.0498.2246.0508.2205.0498.2196.0498.2144.0498.2165.0467.2094.0478.2104.0478.2083.0477.2043.0458.2022.0467.2003.0427.1971.0468.1942.0437.1931.0426.191.0448.186.0416.184.0437.1829.0407.1769.0437.1778.0427.1708.0417.1707.0406.1667.0396.1636.0387.1627.0426.1544.0397.1545.0376.1535.0396.1484.0397.1433.0376.1423.0376.1372.0376.1351.0356.1312.0386.129.0366.125.0365.121.0397.1169.0335.1158.0346.1108.0356.1077.0355.1027.0356.0996.0356.0976.0335.0924.0346.0885.0345.0864.0336.0823.0335.0782.0335.0742.0326.0722.0325.0661.0325.064.0325.06.0326.0559.0325.0528.0315.0498.0325.0437.0305.0417.0325.0355.0336.0366.0254.0265.003.004.0325.0285.0285.0213.0295.0193.0335.0163.0275.0112.0304.0091.0295.0021z" fill="#cf202e"/><path d="m47.1238 6.05142h4.8296v4.37438h-4.8296zm0 7.73948h4.8673v19.7415h-4.8673zm5.7881 0h5.1366l4.0623 12.2297c.3842 1.1616.6515 2.9778.6921 2.9778h.0742c.0397 0 .309-1.8162.6911-2.9778l4.0644-12.2297h5.1366l-7.0148 19.7404h-5.7505zm28.8743-.4645c5.6346 0 8.6644 4.1426 8.6644 9.3656 0 .5804-.1159 1.8975-.1159 1.8975h-13.493c.3059 3.4444 2.9504 5.2251 5.8643 5.2251 3.1415 0 5.6336-2.1679 5.6336-2.1679l1.8782 3.5237s-2.987 2.8254-7.8563 2.8254c-6.4792 0-10.5029-4.7219-10.5029-10.3362 0-6.0747 4.1009-10.3332 9.9276-10.3332zm3.7554 7.895c-.0742-2.6679-1.7227-4.101-3.8702-4.101-2.4911 0-4.2179 1.5479-4.6762 4.101zm7.2648 8.0525s2.1455 2.3609 5.7485 2.3609c2.0711 0 3.8731-1.0448 3.8731-3.0968 0-4.2584-10.3879-3.2136-10.3879-9.5597 0-3.484 3.106-5.3805 6.592-5.3805 4.0629 0 5.9409 2.1292 5.9409 2.1292l-1.187 2.0134s-1.647-1.7806-4.8311-1.7806c-1.9524 0-3.8327.8517-3.8327 3.0195 0 4.2951 10.3888 3.1334 10.3888 9.5598 0 3.174-2.722 5.4577-6.5927 5.4577-4.6772 0-7.1317-2.8254-7.1317-2.8254zm16.0796-12.7734h-2.531v-2.2065h2.569v-5.61025h2.568v5.61125h4.832v2.2065h-4.832v9.6756c0 4.5684 2.875 5.1488 4.334 5.1488.535 0 .877-.0773.877-.0773v2.3579s-.421.0803-1.108.0803c-2.225 0-6.71-.7358-6.71-7.2394v-9.9469zm9.929-2.4383h2.571v3.4455c0 .8517-.079 1.5478-.079 1.5478h.079c.918-2.9423 3.064-5.1874 6.094-5.1874.347.0036.693.0424 1.032.1159v2.5937s-.457-.0772-.954-.0772c-2.723 0-4.755 2.1678-5.6 5.0298-.383 1.239-.535 2.5551-.535 3.793v8.208h-2.608zm19.359-.4644c5.327 0 8.049 4.1426 8.049 8.9814 0 .4614-.076 1.3518-.076 1.3518h-14.797c.115 4.9943 3.489 7.7038 7.474 7.7038 3.527 0 5.866-2.3609 5.866-2.3609l1.188 2.0123s-2.798 2.7096-7.129 2.7096c-5.751 0-10.083-4.1812-10.083-10.1817.001-6.3837 4.295-10.2163 9.508-10.2163zm5.406 8.1673c-.156-4.0643-2.606-5.9608-5.484-5.9608-3.22 0-6.017 2.052-6.63 5.9608zm15.861-.2724h1.073v-.501c0-3.7544-2.031-5.0319-4.793-5.0319-3.18 0-5.444 1.8578-5.444 1.8578l-1.224-2.0123s2.53-2.2065 6.863-2.2065c4.636 0 7.203 2.5937 7.203 7.4711v12.4645h-2.49v-2.1303c0-.9675.075-1.6261.075-1.6261h-.075s-1.61 4.2188-6.439 4.2188c-3.22 0-6.557-1.8995-6.557-5.7677-.001-6.5788 8.471-6.7364 11.808-6.7364zm-4.831 10.258c3.68 0 5.904-3.8723 5.904-7.2394v-.8517h-1.115c-3.025 0-9.082.1158-9.082 4.414 0 1.8162 1.416 3.6771 4.293 3.6771zm12.6-17.6885h2.565v2.9027c0 .8517-.076 1.5479-.076 1.5479h.076c.92-2.6323 3.987-4.916 6.98-4.916 3.564 0 5.401 1.6647 5.976 4.8774h.079c1.034-2.6323 3.831-4.8774 7.091-4.8774 4.677 0 6.404 2.7492 6.404 7.5463v12.3882h-2.609v-11.7265c0-3.1741-.653-5.8074-4.177-5.8074-2.952 0-5.368 2.6333-6.096 5.4943-.269.8517-.343 1.7807-.343 2.8255v9.2141h-2.607v-11.7265c0-2.9454-.423-5.8074-4.064-5.8074-3.143 0-5.518 2.7482-6.326 5.7301-.19.8121-.266 1.7004-.266 2.5907v9.2142h-2.606v-19.4702z" fill="#222020"/></g></svg>

<svg width="197" height="34" viewBox="0 0 197 34" fill="none" xmlns="http://www.w3.org/2000/svg">
<g clip-path="url(#clip0)">
<path d="M42.4293 33.6818L41.5959 33.5567L40.9393 33.3799L40.4626 33.2L40.0022 32.9683L39.5693 32.6796L39.1638 32.3321L38.9158 32.0637L38.679 31.7619L38.3598 31.2496L38.0885 30.6581L37.8669 29.9843L37.7063 29.217L37.6026 28.3531L37.5681 27.3896V26.2614L37.5661 25.8579V25.0489L37.562 24.6475V24.244L37.5579 23.8425L37.5539 23.4421L37.5488 23.0416L37.5447 22.6443L37.5386 22.2499L37.5325 21.8546L37.5244 21.4612L37.5163 21.072L37.5081 20.6817L37.5 20.2945L37.4858 19.9133L37.4776 19.5322L37.4675 19.1531L37.4532 18.7771L37.439 18.4041L37.4248 18.0351L37.4085 17.6703L37.3923 17.3084L37.375 16.9487L37.3587 16.5919L37.3384 16.2433L37.3191 15.8957L37.2988 15.5522L37.2754 15.2127L37.2561 14.8774L37.2296 14.5491L37.2053 14.2228L37.1809 13.9047L37.1565 13.5866L37.127 13.2797L37.0975 12.9727L37.0701 12.6739L37.0396 12.3782L37.0071 12.0905L36.9735 11.806L36.941 11.5285L36.9085 11.2582L36.8699 10.9898L36.8343 10.7297L36.7967 10.4786L36.7581 10.2296L36.7164 9.98874L36.6788 9.75396L36.6341 9.52732L36.5934 9.30576L36.5467 9.09029L36.5019 8.88296L36.4562 8.6807L36.4084 8.48455L36.3607 8.29958L36.3119 8.11968L36.259 7.94487L36.2072 7.77921L36.1533 7.62167L36.1005 7.46922L36.0446 7.32592L35.9887 7.19074L35.9308 7.06065L35.8728 6.93869L35.8098 6.82486L35.7498 6.72018L35.6878 6.62058L35.6238 6.5291L35.5608 6.44678L35.4937 6.37157L35.4246 6.30551L35.3596 6.24758L35.2905 6.19473L35.2183 6.15102L35.1461 6.11444L35.073 6.08699L34.9998 6.06768L34.9225 6.05447L34.8463 6.05142H39.6719L39.7512 6.05447L39.8254 6.06768L39.9006 6.08699L39.9758 6.11444L40.0449 6.15102L40.1181 6.19473L40.1862 6.24758L40.2543 6.30551L40.3234 6.37157L40.3895 6.44678L40.4525 6.5291L40.5175 6.62058L40.5785 6.72018L40.6405 6.82486L40.6984 6.93869L40.7594 7.06065L40.8163 7.19074L40.8733 7.32592L40.9292 7.46922L40.983 7.62167L41.0349 7.77921L41.0877 7.94487L41.1385 8.11968L41.1873 8.29958L41.2381 8.48455L41.2849 8.6807L41.3326 8.88296L41.3774 9.09029L41.419 9.30576L41.4648 9.52732L41.5064 9.75396L41.5471 9.98874L41.5857 10.2296L41.6274 10.4786L41.663 10.7297L41.6985 10.9898L41.7341 11.2582L41.7697 11.5285L41.8022 11.806L41.8357 12.0905L41.8662 12.3782L41.8977 12.6739L41.9252 12.9727L41.9557 13.2797L41.9831 13.5866L42.0085 13.9047L42.0339 14.2228L42.0593 14.5491L42.0817 14.8774L42.103 15.2127L42.1284 15.5522L42.1478 15.8957L42.1691 16.2433L42.1854 16.5919L42.2037 16.9487L42.2219 17.3084L42.2382 17.6703L42.2514 18.0351L42.2677 18.4041L42.2799 18.7771L42.2931 19.1531L42.3053 19.5322L42.3175 19.9133L42.3256 20.2945L42.3368 20.6817L42.348 21.072L42.352 21.4612L42.3581 21.8546L42.3663 22.2499L42.3713 22.6443L42.3774 23.0416L42.3815 23.4421L42.3856 23.8425L42.3886 24.244L42.3907 24.6475V25.0489L42.3968 25.4544V26.6548L42.4272 27.3652L42.5004 27.8601L42.5868 28.1945L42.6702 28.413L42.7687 28.6041L42.8785 28.7708L42.9578 28.8663L43.0482 28.9547L43.1407 29.033L43.2403 29.1021L43.4019 29.1875L43.5737 29.2535L43.7576 29.3033L44.026 29.342L44.3878 29.3623L44.8949 29.342L45.1155 29.3237V33.6198L44.651 33.6777L43.5839 33.7336L42.4293 33.6818Z" fill="#222020"/>
<path d="M20.4468 29.3207H20.3218L20.2191 29.3186L20.1155 29.3095L20.0108 29.2983L19.9071 29.282L19.8045 29.2627L19.7018 29.2414L19.5971 29.2129L19.4904 29.1824L19.3868 29.1458L19.2821 29.1103L19.1754 29.0686L19.0717 29.0249L18.966 28.9751L18.8603 28.9223L18.7556 28.8664L18.6509 28.8064L18.5432 28.7424L18.4395 28.6763L18.3328 28.6041L18.223 28.5299L18.1184 28.4517L18.0106 28.3694L17.9049 28.283L17.7982 28.1945L17.6895 28.1021L17.5817 28.0045L17.475 27.9049L17.3663 27.8022L17.2585 27.6945L17.1518 27.5837L17.0431 27.4679L16.9323 27.351L16.8246 27.23L16.7168 27.105L16.6101 26.976L16.4973 26.8448L16.3906 26.7097L16.2808 26.5725L16.1711 26.4302L16.0623 26.2869L15.9515 26.1385L15.8418 25.985L15.732 25.8305L15.6212 25.6761L15.5114 25.5134L15.4017 25.3498L15.2889 25.1831L15.1771 25.0124L15.0653 24.8416L14.9555 24.6638L14.8427 24.4869L14.7329 24.304L14.6211 24.12L14.5093 23.934L14.3975 23.743L14.2847 23.5499L14.1719 23.3557L14.0591 23.1586L13.9473 22.9583L13.8355 22.7561L13.7247 22.5518L13.6088 22.3435L13.496 22.1331L13.3832 21.9237L13.2684 21.7072L13.1576 21.4928L13.0417 21.2732L12.9289 21.0527L12.8141 20.8281L12.7023 20.6045L12.5864 20.3778L12.4716 20.1512L12.3598 19.9215L12.2429 19.6888L12.127 19.455L12.0132 19.2223L11.8994 18.9844L11.7825 18.7456L11.6666 18.5088L11.5518 18.2679L11.4359 18.024L11.319 17.7811L11.2032 17.5372L11.0893 17.2922L10.9714 17.0463L10.8556 16.7993L10.7407 16.5513L10.6249 16.3023L10.5049 16.0533L10.387 15.8012L10.2722 15.5522L10.1563 15.3012L10.0374 15.0492L9.92053 14.7981L9.80365 14.543L9.68373 14.292L9.56888 14.0399L9.44793 13.7858L9.33309 13.5338L9.21214 13.2827L9.0973 13.0276L8.97737 12.7756L8.85642 12.5246L8.74158 12.2725L8.62165 12.0245L8.5007 11.7725L8.38281 11.5235L8.26491 11.2724L8.14498 11.0234L8.02404 10.7775L7.90512 10.5305L7.78418 10.2845L7.66527 10.0386L7.54432 9.79567L7.42439 9.5548L7.30345 9.31189L7.18454 9.07407L7.06461 8.83523L6.94468 8.59842L6.82373 8.36364L6.70177 8.1309L6.58083 7.89816L6.45988 7.66948L6.33995 7.44182L6.21799 7.21517L6.09603 6.99158L5.97509 6.77001L5.85211 6.54845L5.73218 6.334L5.61022 6.11752L5.48826 5.90511L5.36325 5.69472L5.24434 5.48739L5.12034 5.28209L4.99736 5.0839L4.87439 4.8847L4.75141 4.68854L4.62843 4.49442L4.50749 4.30335L4.38248 4.11532L4.25848 3.9334L4.13652 3.75046L4.01151 3.57361L3.89057 3.39982L3.76555 3.22806L3.64156 3.06239L3.51757 2.89876L3.39256 2.73818L3.26958 2.58166L3.14457 2.43124L3.02057 2.28184L2.8976 2.13549L2.77157 1.99421L2.64554 1.85904L2.51952 1.7259L2.39552 1.59581L2.27153 1.47181L2.1455 1.3529L2.01846 1.23704L1.89447 1.12422L1.76946 1.01547L1.64343 0.913839L1.51842 0.817287L1.39137 0.722767L1.26535 0.631296L1.13932 0.548972L1.0133 0.468681L0.884219 0.393471L0.761242 0.321311L0.632166 0.258297L0.507156 0.197317L0.380113 0.141418L0.252053 0.088568L0.126027 0.0458815L0 0.00421143H0.0132125L2.22579 0.0458815L4.291 0.088568L6.12855 0.141418L7.72828 0.197317L9.12372 0.258297L10.3494 0.321311L11.4359 0.393471L12.4085 0.468681L13.2846 0.548972L14.0845 0.631296L14.8163 0.722767L15.4891 0.817287L16.1131 0.913839L16.6975 1.01547L17.2392 1.12422L17.7484 1.23704L18.2261 1.3529L18.6784 1.47181L19.1042 1.59581L19.5087 1.7259L19.8909 1.85904L20.2578 1.99421L20.6074 2.13549L20.9397 2.28184L21.2568 2.43124L21.5597 2.58166L21.8534 2.73818L22.1309 2.89876L22.3992 3.06239L22.6594 3.22806L22.9064 3.39982L23.1442 3.57361L23.3769 3.75046L23.5954 3.9334L23.8119 4.11532L24.0172 4.30335L24.2195 4.49442L24.4126 4.68854L24.5996 4.8847L24.7785 5.0839L24.9563 5.28209L25.125 5.48739L25.2887 5.69472L25.4503 5.90511L25.6027 6.11752L25.7521 6.334L25.8985 6.54845L26.0418 6.77001L26.178 6.99158L26.3111 7.21517L26.4412 7.44182L26.5683 7.66948L26.6933 7.89816L26.8122 8.1309L26.9291 8.36364L27.0439 8.59842L27.1557 8.83523L27.2624 9.07407L27.3712 9.31189L27.4738 9.5548L27.5785 9.79567L27.6771 10.0386L27.7777 10.2845L27.8722 10.5305L27.9667 10.7775L28.0582 11.0234L28.1497 11.2724L28.2381 11.5235L28.3286 11.7725L28.4099 12.0245L28.4952 12.2725L28.5776 12.5246L28.6579 12.7756L28.7392 13.0276L28.8184 13.2827L28.8957 13.5338L28.9719 13.7858L29.0461 14.0399L29.1162 14.292L29.1924 14.543L29.2626 14.7981L29.3327 15.0492L29.4018 15.3012L29.4709 15.5522L29.538 15.8012L29.6041 16.0533L29.6152 16.0889L29.6691 16.3023L29.7342 16.5513L29.7962 16.7993L29.8592 17.0463L29.9202 17.2922L29.9822 17.5372L30.0421 17.7811L30.1031 18.024L30.16 18.2679L30.219 18.5088L30.2769 18.7456L30.3297 18.9844L30.3887 19.2223L30.4426 19.455L30.4974 19.6888L30.5493 19.9215L30.6042 20.1512L30.658 20.3778L30.7068 20.6045L30.7597 20.8281L30.8095 21.0527L30.8603 21.2732L30.9101 21.4928L30.9599 21.7072L31.0097 21.9237L31.0564 22.1331L31.1042 22.3435L31.152 22.5518L31.1997 22.7561L31.2455 22.9583L31.2922 23.1586L31.3349 23.3557L31.3817 23.5499L31.4254 23.743L31.468 23.934L31.5128 24.12L31.5544 24.304L31.5981 24.4869L31.6388 24.6638L31.6825 24.8416L31.7252 25.0124L31.7669 25.1831L31.8075 25.3498L31.8471 25.5134L31.8858 25.6761L31.9284 25.8305L31.9681 25.985L32.0057 26.1385L32.0453 26.2869L32.085 26.4302L32.1226 26.5725L32.1602 26.7097L32.1978 26.8448L32.2334 26.976L32.272 27.105L32.3086 27.23L32.3451 27.351L32.3848 27.4679L32.4183 27.5837L32.4529 27.6945L32.4885 27.8022L32.524 27.9049L32.5596 28.0045L32.5952 28.1021L32.6287 28.1945L32.6633 28.283L32.6978 28.3694L32.7314 28.4517L32.7649 28.5299L32.7984 28.6041L32.831 28.6763L32.8635 28.7424L32.896 28.8064L32.9285 28.8664L32.9611 28.9223L32.9936 28.9751L33.0251 29.0249L33.0576 29.0686L33.0881 29.1103L33.1206 29.1458L33.1542 29.1824L33.1796 29.2089L33.1826 29.2129L33.2151 29.2414L33.2436 29.2627L33.2731 29.282L33.3066 29.2983L33.3341 29.3095L33.3645 29.3186L33.394 29.3207H20.4468Z" fill="#CF202E"/>
<path d="M47.1238 6.05142H51.9534V10.4258H47.1238V6.05142ZM47.1238 13.7909H51.9911V33.5324H47.1238V13.7909ZM52.9119 13.7909H58.0485L62.1108 26.0206C62.495 27.1822 62.7623 28.9984 62.8029 28.9984H62.8771C62.9168 28.9984 63.1861 27.1822 63.5682 26.0206L67.6326 13.7909H72.7692L65.7544 33.5313H60.0039L52.9119 13.7909ZM81.7862 13.3264C87.4208 13.3264 90.4506 17.469 90.4506 22.692C90.4506 23.2724 90.3347 24.5895 90.3347 24.5895H76.8417C77.1476 28.0339 79.7921 29.8146 82.706 29.8146C85.8475 29.8146 88.3396 27.6467 88.3396 27.6467L90.2178 31.1704C90.2178 31.1704 87.2308 33.9958 82.3615 33.9958C75.8823 33.9958 71.8586 29.2739 71.8586 23.6596C71.8586 17.5849 75.9595 13.3264 81.7862 13.3264ZM85.5416 21.2214C85.4674 18.5535 83.8189 17.1204 81.6714 17.1204C79.1803 17.1204 77.4535 18.6683 76.9952 21.2214H85.5416ZM92.8064 29.2739C92.8064 29.2739 94.9519 31.6348 98.5549 31.6348C100.626 31.6348 102.428 30.59 102.428 28.538C102.428 24.2796 92.0401 25.3244 92.0401 18.9783C92.0401 15.4943 95.1461 13.5978 98.6321 13.5978C102.695 13.5978 104.573 15.727 104.573 15.727L103.386 17.7404C103.386 17.7404 101.739 15.9598 98.5549 15.9598C96.6025 15.9598 94.7222 16.8115 94.7222 18.9793C94.7222 23.2744 105.111 22.1127 105.111 28.5391C105.111 31.7131 102.389 33.9968 98.5183 33.9968C93.8411 33.9968 91.3866 31.1714 91.3866 31.1714L92.8064 29.2739ZM108.886 16.5005H106.355V14.294H108.924V8.68375H111.492V14.295H116.324V16.5015H111.492V26.1771C111.492 30.7455 114.367 31.3259 115.826 31.3259C116.361 31.3259 116.703 31.2486 116.703 31.2486V33.6065C116.703 33.6065 116.282 33.6868 115.595 33.6868C113.37 33.6868 108.885 32.951 108.885 26.4474V16.5005H108.886ZM118.815 14.0622H121.386V17.5077C121.386 18.3594 121.307 19.0555 121.307 19.0555H121.386C122.304 16.1132 124.45 13.8681 127.48 13.8681C127.827 13.8717 128.173 13.9105 128.512 13.984V16.5777C128.512 16.5777 128.055 16.5005 127.558 16.5005C124.835 16.5005 122.803 18.6683 121.958 21.5303C121.575 22.7693 121.423 24.0854 121.423 25.3233V33.5313H118.815V14.0622ZM138.174 13.5978C143.501 13.5978 146.223 17.7404 146.223 22.5792C146.223 23.0406 146.147 23.931 146.147 23.931H131.35C131.465 28.9253 134.839 31.6348 138.824 31.6348C142.351 31.6348 144.69 29.2739 144.69 29.2739L145.878 31.2862C145.878 31.2862 143.08 33.9958 138.749 33.9958C132.998 33.9958 128.666 29.8146 128.666 23.8141C128.667 17.4304 132.961 13.5978 138.174 13.5978ZM143.58 21.7651C143.424 17.7008 140.974 15.8043 138.096 15.8043C134.876 15.8043 132.079 17.8563 131.466 21.7651H143.58ZM159.441 21.4927H160.514V20.9917C160.514 17.2373 158.483 15.9598 155.721 15.9598C152.541 15.9598 150.277 17.8176 150.277 17.8176L149.053 15.8053C149.053 15.8053 151.583 13.5988 155.916 13.5988C160.552 13.5988 163.119 16.1925 163.119 21.0699V33.5344H160.629V31.4041C160.629 30.4366 160.704 29.778 160.704 29.778H160.629C160.629 29.778 159.019 33.9968 154.19 33.9968C150.97 33.9968 147.633 32.0973 147.633 28.2291C147.632 21.6503 156.104 21.4927 159.441 21.4927ZM154.61 31.7507C158.29 31.7507 160.514 27.8784 160.514 24.5113V23.6596H159.399C156.374 23.6596 150.317 23.7754 150.317 28.0736C150.317 29.8898 151.733 31.7507 154.61 31.7507ZM167.21 14.0622H169.775V16.9649C169.775 17.8166 169.699 18.5128 169.699 18.5128H169.775C170.695 15.8805 173.762 13.5968 176.755 13.5968C180.319 13.5968 182.156 15.2615 182.731 18.4742H182.81C183.844 15.8419 186.641 13.5968 189.901 13.5968C194.578 13.5968 196.305 16.346 196.305 21.1431V33.5313H193.696V21.8048C193.696 18.6307 193.043 15.9974 189.519 15.9974C186.567 15.9974 184.151 18.6307 183.423 21.4917C183.154 22.3434 183.08 23.2724 183.08 24.3172V33.5313H180.473V21.8048C180.473 18.8594 180.05 15.9974 176.409 15.9974C173.266 15.9974 170.891 18.7456 170.083 21.7275C169.893 22.5396 169.817 23.4279 169.817 24.3182V33.5324H167.211V14.0622H167.21Z" fill="#222020"/>
</g>
<defs>
<clipPath id="clip0">
<rect width="196.305" height="34" fill="white"/>
</clipPath>
</defs>
</svg>
